!!!COM: Music21
!!!OTL: reel_A-Mhaire-Ni-Laoghaire
!!!OMV: reel_A-Mhaire-Ni-Laoghaire
**kern
*clefG2
*k[f#]
*M4/4
=1
4a
8b
4.cc
8bL
8aJ
=
8gL
8cc
8bJ
4.cc
8r
16ccLL
16ddJJ
=
4ee
32eeLLL
32dd
32ee
32ddJJ
8cJ
4.ee
8ee
=
*M1/8
8dd
=
*M4/4
16ccLL
[16bJJ
8ryy
16bLL]
16aJ
8cJ
4.g
8a
!!linebreak:original
=
*M1/8
16bKL
8b
16ccJk
=
*M4/4
[8a
4ryy
4r
8b
16bLL
16aJ]
8cJ
=
*M1/8
[8gL
[8aJ
=
*M4/4
8g]
8aL]
8eJ
4cc
8b
4cc
8r
=
16ccLL
16ddJ
8eeJ
16eeLL
16dd
32aJK
8cJ
32bLLL
32cc
32bJJJ
[4.a
!!linebreak:original
=
*M1/8
8a]
=
*M4/4
16bLL
16aJJ
2.a
8r
=
8aL
8bJ
8.ddL
16eeJk
8gg
[4.aa
=
8aaL]
16bbL
16bbJJ
8aaL
24aaL
24gg
24eeJJ
4aa
24aaLL
24gg
24eeJ
[8aaJ
!!linebreak:original
=
8aa_
8ryy
8r
16ff#KL
8cJ
8.ggL
8aa]
16eeL
[16eeJJ
=
*M1/8
8eeL]
8aaJ
=
*M4/4
16eeLL
16dd
16eeJ
8c
16eeJk
4.ee
16eeLL
16ddJ
8ccJ
=
*M1/8
8b
=
*M4/4
16bLL
16aJ
8cJ
4.g
8a
16bLL
16ccJ
[8aJ
!!linebreak:original
=
*M1/8
8a_
=
*M4/4
8a_
8ryy
8r
4b
16bLL
16aJJ]
8cL
[8gJ
=
*M1/8
8gL]
8aJ
=
*M4/4
16gLL
16eJJ
4cc
8b
4.cc
8r
=
16ccLL
16ddJ
8eeJ
8ddL
8cJ
16ccLL
16bJJ
[4.a
=
*M1/8
8a]
!!linebreak:original
=
*M4/4
8b
2.a
8r
=
8aL
8b
8cJ
4.cc
8bL
[8aJ
=
*M1/8
8a]
=
*M4/4
8aL
8bJ
16bLL
16aJ
8cJ
4g
16gLL
16eJ
[8ccJ
=
*M1/8
16ccLL]
16bJJ
=
*M4/4
[8cc
4ryy
8r
12ccL]
12dd
12eeJ
8.eeL
16eeJk
!!linebreak:original
=
12dd
[8ccL
[24eeJk
12cL
8eeJ_
4.ee]
8eeL
12dd
24ccJk_
128..ryy
=
*M1/8
24cc]
8ccL
24eeK
12bJ
256..ryy
=
*M4/4
16bLL
16aJ
8cJ
4.g
8a
16bLL
16ccJ
[8aJ
=
*M1/8
8a_
!!linebreak:original
=
*M4/4
8a_
4ryy
8r
8c
4b
16bLL
16aJJ]
=
*M1/8
[8gL
[8aJ
=
*M4/4
8g]
8a]
16gLL
16eJJ
4cc
8b
4.cc
=
8r
16ccLL
16ddJJ
8eeL
16eeL
16ddJJ
32aKKL
8c
32bLL
32cc
32bJJJ
[4a
=
*M1/8
8a_
!!linebreak:original
=
*M4/4
8aL]
8bJ
[4.a
4a]
8r
=
8r
16aLL
16bJJ
4dd
8eeL
8ggJ
[4aa
=
8aa_
4ryy
16bbLL
16bbJJ
8aaL]
16aaL
16ggJJ
8eeL
8cJ
=
*M1/8
[8aaL
8aaJ_
=
*M4/4
8aa_
8aa]
16gg
8eeL
8cJ
4aa
8r
8c
!!linebreak:original
=
*M1/4
[4gg
16aa
=
*M4/4
8ggL]
8cJ
8aaL
8eeJ
8eeL
32eeLL
32ff#J
16eeJJ
16ddLL
16eeJ
8cJ
=
*M1/4
[4ee
=
*M4/4
4ee]
4r
16ddLL
16ccJ
8cJ
4b
=
*M1/8
24ccLL
24b
24aJJ
=
*M4/4
8c
4.g
8aL
16bL
16ccJJ
4a
!!pagebreak:original
=
*M1/8
[8a
=
*M4/4
8a_
8ryy
8r
8c
4.b
16bLL
16aJJ]
=
*M1/8
[8gL
8aJ
=
*M4/4
8gL]
16gL
16f#JJ
4cc
8b
[4.cc
=
8cc]
8r
8ccL
8ddJ
8eeL
16eeL
16ddJJ
8bL
[8aJ
=
4.a]
8b
[2a
!!linebreak:original
=
1a]
=
*-
